icons/briefcase-two-color.svg

<?xml version="1.0" encoding="UTF-8"?><svg xmlns="http://www.w3.org/2000/svg" viewBox="0 0 50 50"><g id="uuid-3c7644e4-dc8f-422a-9850-d11f57231a55"><g><polygon points="2.53 12.99 48.48 12.99 48.48 11.49 1.03 11.49 1.03 27.1 2.53 27.1 2.53 12.99" fill="none"/><path d="M34.89,24.67c.09,.25,.15,.52,.15,.8v1.63h1.5v-.13c0-1.07-.69-1.97-1.65-2.3Z" fill="none"/><rect x="18.89" y="7.07" width="11.73" height="3.42" fill="none"/><path d="M19.98,24.67c.09,.25,.15,.52,.15,.8v1.63h1.5v-.13c0-1.07-.69-1.97-1.65-2.3Z" fill="none"/><path d="M36.53,28.1h-1.5v.38c0,1.35-1.1,2.45-2.45,2.45h-.76c-1.31,0-2.37-1.04-2.43-2.33h-7.77v-.5h-1.5v.38c0,1.35-1.1,2.45-2.45,2.45h-.76c-1.31,0-2.37-1.04-2.43-2.33H2.53v-.5h-.49v14.34H47.47v-13.84h-10.94v-.5Z" fill="none"/><path d="M2.53,12.99v15.61h1.01v15.34H48.97v-15.34h1V12.99H2.53Zm16.6,15.49c0,.8-.65,1.45-1.45,1.45h-.76c-.76,0-1.37-.59-1.43-1.33,0-.04-.01-.08-.01-.12v-3.01c0-.8,.65-1.45,1.45-1.45h.76c.43,0,.82,.2,1.08,.5,.22,.25,.36,.58,.36,.95v3.01Zm14.9,0c0,.8-.65,1.45-1.45,1.45h-.76c-.76,0-1.37-.59-1.43-1.33,0-.04-.01-.08-.01-.12v-3.01c0-.8,.65-1.45,1.45-1.45h.76c.43,0,.82,.2,1.08,.5,.22,.25,.36,.58,.36,.95v3.01Z" fill="#ffcd00"/><path d="M48.98,10.49H31.62v-3.92c0-.28-.22-.5-.5-.5h-12.73c-.28,0-.5,.22-.5,.5v3.92H.53c-.28,0-.5,.22-.5,.5V27.6c0,.28,.22,.5,.5,.5h.51v14.84c0,.28,.22,.5,.5,.5H47.97c.28,0,.5-.22,.5-.5v-14.84h.51c.28,0,.5-.22,.5-.5V10.99c0-.28-.22-.5-.5-.5Zm-30.09-3.42h11.73v3.42h-11.73v-3.42Zm28.58,21.53v13.84H2.05v-14.34H14.48v.38s0,.08,.01,.12c.06,1.29,1.12,2.33,2.43,2.33h.76c1.35,0,2.45-1.1,2.45-2.45v-.38h9.25v.38s0,.08,.01,.12c.06,1.29,1.13,2.33,2.43,2.33h.76c1.35,0,2.45-1.1,2.45-2.45v-.38h12.44v.5Zm-31.99-.12v-3.01c0-.8,.65-1.45,1.45-1.45h.76c.43,0,.82,.2,1.08,.5,.22,.25,.36,.58,.36,.95v3.01c0,.8-.65,1.45-1.45,1.45h-.76c-.76,0-1.37-.59-1.43-1.33,0-.04-.01-.08-.01-.12Zm14.9,0v-3.01c0-.8,.65-1.45,1.45-1.45h.76c.43,0,.82,.2,1.08,.5,.22,.25,.36,.58,.36,.95v3.01c0,.8-.65,1.45-1.45,1.45h-.76c-.76,0-1.37-.59-1.43-1.33,0-.04-.01-.08-.01-.12Zm18.1-15.49v14.11h-13.45v-1.63c0-.28-.06-.55-.15-.8-.33-.95-1.23-1.65-2.3-1.65h-.76c-1.35,0-2.45,1.1-2.45,2.45v1.63h-9.25v-1.63c0-.28-.06-.55-.15-.8-.33-.95-1.23-1.65-2.3-1.65h-.76c-1.35,0-2.45,1.1-2.45,2.45v1.63H1.03V11.49H48.48v1.5Z"/></g></g><g id="uuid-b05c12ab-3144-4198-8258-1c9a854a68f4"><text transform="translate(.44 54.96)" font-family="Roboto-Regular, Roboto" font-size="6"><tspan x="0" y="0">brie</tspan><tspan x="10.03" y="0" letter-spacing="-.01em">f</tspan><tspan x="12.04" y="0">case</tspan></text></g></svg>

<svg xmlns="http://www.w3.org/2000/svg" viewBox="0 0 50 50"><g id="b1ddf8d5-1790-45ce-872a-2b9f1e8e4a96" data-name="ICONS"><polygon points="2.53 12.99 48.48 12.99 48.48 11.49 1.03 11.49 1.03 27.09 2.53 27.09 2.53 12.99" fill="none"/><path d="M34.89,24.67a2.58,2.58,0,0,1,.14.8V27.1h1.5V27A2.44,2.44,0,0,0,34.89,24.67Z" fill="none"/><rect x="18.89" y="7.07" width="11.73" height="3.42" fill="none"/><path d="M20,24.67a2.32,2.32,0,0,1,.15.8V27.1h1.5V27A2.43,2.43,0,0,0,20,24.67Z" fill="none"/><path d="M36.53,28.1H35v.38a2.44,2.44,0,0,1-2.44,2.44h-.76a2.43,2.43,0,0,1-2.43-2.33H21.63V28.1h-1.5v.38a2.45,2.45,0,0,1-2.45,2.44h-.75a2.45,2.45,0,0,1-2.44-2.33h-12V28.1H2.05V42.43H47.47V28.59H36.53Z" fill="none"/><path d="M2.53,13V28.6h1V43.93H49V28.6h1V13Zm16.6,15.49a1.44,1.44,0,0,1-1.45,1.44h-.75a1.44,1.44,0,0,1-1.44-1.33s0-.07,0-.11v-3A1.45,1.45,0,0,1,16.93,24h.75a1.46,1.46,0,0,1,1.09.5,1.43,1.43,0,0,1,.36.95Zm14.9,0a1.44,1.44,0,0,1-1.44,1.44h-.76a1.43,1.43,0,0,1-1.43-1.33.36.36,0,0,1,0-.11v-3A1.45,1.45,0,0,1,31.83,24h.76A1.46,1.46,0,0,1,34,25.47Z" fill="#fdd600"/><path d="M49,10.49H31.62V6.57a.5.5,0,0,0-.5-.5H18.39a.5.5,0,0,0-.5.5v3.92H.53A.5.5,0,0,0,0,11V27.6a.51.51,0,0,0,.5.5h.52V42.93a.5.5,0,0,0,.5.5H48a.5.5,0,0,0,.5-.5V28.1H49a.5.5,0,0,0,.5-.5V11A.5.5,0,0,0,49,10.49ZM18.89,7.07H30.62v3.42H18.89ZM47.47,28.59V42.43H2.05V28.1H14.48v.38s0,.08,0,.11a2.45,2.45,0,0,0,2.44,2.33h.75a2.45,2.45,0,0,0,2.45-2.44V28.1h9.25v.38a.36.36,0,0,0,0,.11,2.43,2.43,0,0,0,2.43,2.33h.76A2.44,2.44,0,0,0,35,28.48V28.1H47.47Zm-32-.11v-3A1.45,1.45,0,0,1,16.93,24h.75a1.46,1.46,0,0,1,1.09.5,1.43,1.43,0,0,1,.36.95v3a1.44,1.44,0,0,1-1.45,1.44h-.75a1.44,1.44,0,0,1-1.44-1.33S15.48,28.52,15.48,28.48Zm14.9,0v-3A1.45,1.45,0,0,1,31.83,24h.76A1.46,1.46,0,0,1,34,25.47v3a1.44,1.44,0,0,1-1.44,1.44h-.76a1.43,1.43,0,0,1-1.43-1.33A.36.36,0,0,1,30.38,28.48ZM48.48,13V27.1H35V25.47a2.58,2.58,0,0,0-.14-.8A2.45,2.45,0,0,0,32.59,23h-.76a2.45,2.45,0,0,0-2.45,2.45V27.1H20.13V25.47a2.32,2.32,0,0,0-.15-.8A2.43,2.43,0,0,0,17.68,23h-.75a2.45,2.45,0,0,0-2.45,2.45V27.1H1V11.49H48.48Z" fill="#231f20"/></g><g id="afd2e69b-ed7e-4d3b-b2c5-603b3b066605" data-name="LABELS"><text transform="translate(0.44 54.96)" font-size="6" fill="#231f20" font-family="Roboto-Regular, Roboto">brie<tspan x="10.03" y="0" letter-spacing="-0.01em">f</tspan><tspan x="12.04" y="0">case</tspan></text></g></svg>
